X:1
T:Le Furet  "CYMRU"
M:C|
L:1/8
Q:80
C:Arr. C. Layer
S:
K:HP
|: A2 | \
{g}de{g}f2 | \
{g}e{A}e{g}B2 |
{g}dcB{g}A | \
{g}Bc{g}dA :| | \
{g}dcB{g}A |
{g}Bc{g}dA | \
{g}dcB{g}A | \
{g}Bc{g}dA :|
